X:1
T:    Cuz Tehans (C whistle 1 note high)
M:4/4
L:1/8
Q:325
C:Cuz Tehan
S:L. Nugent W_GAP Trk 4
R:Slow Reel
D:The Windy Gap - Laurence Nugent
Z:David Dahl
K:C
E | DBDE G3 A | A/8B2dB AGed | e2 dB GABe | d2 BG (3ABA GE |
DBDE G3 A | ABdB AGed | e2 dB GABe |1 d2 AB G3 :|2 d2 AB g3 ||
e | dBde g2 (3gfe | dBAG EGGA | B2 AD BAAD | BAAG EGGe |
dBde g2 (3gfe | dBAG EGGA | B2 AD BAAG |1 BdAB g3 :|2 BdAB G4 ||
